packages/ffe-icons/icons/open/500/md/line_start_circle.svg

<svg xmlns="http://www.w3.org/2000/svg" height="24" viewBox="0 -960 960 960" width="24"><path d="M320-326.218q63.609 0 108.696-45.086Q473.782-416.391 473.782-480q0-63.609-45.086-108.696Q383.609-633.782 320-633.782q-63.609 0-108.696 45.086Q166.218-543.609 166.218-480q0 63.609 45.086 108.696Q256.391-326.218 320-326.218Zm0 91.001q-102.152 0-173.467-71.316Q75.217-377.848 75.217-480q0-102.152 71.316-173.467Q217.848-724.783 320-724.783q90.478 0 157.696 56.761 67.217 56.761 82.891 142.522H840q19.152 0 32.326 13.174T885.5-480q0 19.152-13.174 32.326T840-434.5H560.587q-15.674 85.761-82.891 142.522Q410.478-235.217 320-235.217ZM320-480Z"/></svg>

<svg xmlns="http://www.w3.org/2000/svg" height="24" viewBox="0 -960 960 960" width="24"><path d="M320-326.22q63.61 0 108.7-45.08 45.08-45.09 45.08-108.7T428.7-588.7q-45.09-45.08-108.7-45.08T211.3-588.7q-45.08 45.09-45.08 108.7t45.08 108.7q45.09 45.08 108.7 45.08Zm0 91q-102.15 0-173.47-71.31Q75.22-377.85 75.22-480t71.31-173.47q71.32-71.31 173.47-71.31 90.48 0 157.7 56.76 67.21 56.76 82.89 142.52H840q19.15 0 32.33 13.17Q885.5-499.15 885.5-480t-13.17 32.33Q859.15-434.5 840-434.5H560.59q-15.68 85.76-82.89 142.52-67.22 56.76-157.7 56.76ZM320-480Z"/></svg>
